icons/line/sound-up.svg

<svg width="24" height="24" viewBox="0 0 24 24" fill="none" xmlns="http://www.w3.org/2000/svg">
<path fill-rule="evenodd" clip-rule="evenodd" d="M13 4.70325C13 2.84644 10.6899 1.99188 9.48149 3.40167L5.83939 7.65079C5.6494 7.87243 5.37206 8 5.08013 8H5C3.34315 8 2 9.34314 2 11V13C2 14.6569 3.34315 16 5 16H5.08013C5.37206 16 5.6494 16.1276 5.83939 16.3492L9.48149 20.5983C10.6899 22.0081 13 21.1536 13 19.2967V4.70325ZM7.3579 8.95237L11 4.70325V19.2967L7.3579 15.0476C6.78795 14.3827 5.9559 14 5.08013 14H5C4.44772 14 4 13.5523 4 13V11C4 10.4477 4.44772 10 5 10H5.08013C5.9559 10 6.78795 9.61731 7.3579 8.95237ZM18.6363 4.27497C18.2359 3.8946 17.603 3.91086 17.2226 4.31128C16.8422 4.7117 16.8585 5.34466 17.2589 5.72503C20.9137 9.19676 20.9137 14.8032 17.2589 18.275C16.8585 18.6553 16.8422 19.2883 17.2226 19.6887C17.603 20.0891 18.2359 20.1054 18.6363 19.725C23.1212 15.4648 23.1212 8.53522 18.6363 4.27497ZM15.6887 7.07497C15.2883 6.6946 14.6553 6.71086 14.275 7.11128C13.8946 7.5117 13.9109 8.14466 14.3113 8.52503C16.3381 10.4504 16.3381 13.5496 14.3113 15.475C13.9109 15.8553 13.8946 16.4883 14.275 16.8887C14.6553 17.2891 15.2883 17.3054 15.6887 16.925C18.5457 14.2112 18.5457 9.78882 15.6887 7.07497Z" fill="currentColor"/>
</svg>

<svg width="24" height="24" fill="none" xmlns="http://www.w3.org/2000/svg"><path fill-rule="evenodd" clip-rule="evenodd" d="M13 4.703c0-1.857-2.31-2.711-3.519-1.301L5.84 7.65A1 1 0 015.08 8H5a3 3 0 00-3 3v2a3 3 0 003 3h.08a1 1 0 01.76.35l3.641 4.248c1.209 1.41 3.519.556 3.519-1.301V4.703zm-5.642 4.25L11 4.702v14.594l-3.642-4.25A3 3 0 005.08 14H5a1 1 0 01-1-1v-2a1 1 0 011-1h.08a3 3 0 002.278-1.048zm11.278-4.678a1 1 0 10-1.377 1.45c3.655 3.472 3.655 9.078 0 12.55a1 1 0 101.377 1.45c4.485-4.26 4.485-11.19 0-15.45zm-2.947 2.8a1 1 0 10-1.378 1.45c2.027 1.925 2.027 5.025 0 6.95a1 1 0 101.378 1.45c2.857-2.714 2.857-7.136 0-9.85z" fill="currentColor"/></svg>
